src/standard/amp.svg

<svg xmlns="http://www.w3.org/2000/svg" viewBox="0 0 36 36">
  <path d="M31 8.38h-6.48l-.75-3.51a.62.62 0 0 0-.61-.49H12.84a.62.62 0 0 0-.61.49l-.75 3.51H5a.62.62 0 0 0-.62.62v20a.62.62 0 0 0 .62.62h26a.62.62 0 0 0 .62-.62V9a.62.62 0 0 0-.62-.62ZM13.35 5.62h9.3l.59 2.76H12.76Zm17 4v4.76H5.62V9.62ZM5.62 28.38V15.62h24.76v12.76Z"/>
  <circle cx="27" cy="31" r=".62"/>
  <path d="M24 12.62h3a.62.62 0 0 0 0-1.24h-3a.62.62 0 0 0 0 1.24Z"/>
  <circle cx="15" cy="12" r=".62"/>
  <circle cx="12" cy="12" r=".62"/>
  <circle cx="9" cy="12" r=".62"/>
  <circle cx="9" cy="31" r=".62"/>
</svg>

<svg id="a399a94f-6590-464d-bd56-f4db5e27a454" data-name="Icon" xmlns="http://www.w3.org/2000/svg" viewBox="0 0 36 36">
  <title>Amp icon - Black</title>
<desc>music, play, sound, amplify, loud, guitar, concert, volume, objects</desc>
<metadata><?xpacket begin="﻿" id="W5M0MpCehiHzreSzNTczkc9d"?>
<x:xmpmeta xmlns:x="adobe:ns:meta/" x:xmptk="Adobe XMP Core 8.0-c001 1.000000, 0000/00/00-00:00:00        ">
   <rdf:RDF xmlns:rdf="http://www.w3.org/1999/02/22-rdf-syntax-ns#">
      <rdf:Description rdf:about=""
            xmlns:xmp="http://ns.adobe.com/xap/1.0/"
            xmlns:dc="http://purl.org/dc/elements/1.1/"
            xmlns:cq="http://www.day.com/jcr/cq/1.0"
            xmlns:tiff="http://ns.adobe.com/tiff/1.0/">
         <xmp:rhcc-effective-on>2023-12-08T17:35:18.663Z</xmp:rhcc-effective-on>
         <xmp:rhcc-metadata-complete-moderator>pending</xmp:rhcc-metadata-complete-moderator>
         <xmp:rhcc-translation-id>TRA79b17efc-33d2-4fc6-be73-dcebf18facd3</xmp:rhcc-translation-id>
         <xmp:brand-content-type>Icon</xmp:brand-content-type>
         <xmp:CreateDate>2023-12-08T17:35:18.663Z</xmp:CreateDate>
         <xmp:rhcc-effective-on-set-on-upload>true</xmp:rhcc-effective-on-set-on-upload>
         <xmp:rhcc-metadata-complete-uploader>pending</xmp:rhcc-metadata-complete-uploader>
         <xmp:rhcc-file-last-modified>2023-12-08T17:35:32.054Z</xmp:rhcc-file-last-modified>
         <xmp:rhcc-audience>rhcc-audience:internal</xmp:rhcc-audience>
         <xmp:rhcc-rights-restricted>no</xmp:rhcc-rights-restricted>
         <xmp:brand-content-subtype>Icon</xmp:brand-content-subtype>
         <xmp:rhcc-derivative-id>DER79b17efc-33d2-4fc6-be73-dcebf18facd3</xmp:rhcc-derivative-id>
         <xmp:brand-logo-color>Black</xmp:brand-logo-color>
         <xmp:rhcc-notify-portal-subscribers-on-change>yes</xmp:rhcc-notify-portal-subscribers-on-change>
         <dc:format>image/svg+xml</dc:format>
         <dc:modified>2024-02-09T20:29:15.262Z</dc:modified>
         <dc:title>
            <rdf:Alt>
               <rdf:li xml:lang="x-default">Amp icon - Black</rdf:li>
            </rdf:Alt>
         </dc:title>
         <dc:description>
            <rdf:Alt>
               <rdf:li xml:lang="x-default">music, play, sound, amplify, loud, guitar, concert, volume, objects</rdf:li>
            </rdf:Alt>
         </dc:description>
         <cq:lastReplicationAction_scene7>Activate</cq:lastReplicationAction_scene7>
         <cq:lastReplicationAction_publish>Activate</cq:lastReplicationAction_publish>
         <cq:lastReplicated_publish>2024-02-09T22:16:07.461Z</cq:lastReplicated_publish>
         <cq:lastReplicatedBy>workflow-process-service</cq:lastReplicatedBy>
         <cq:lastReplicationAction>Activate</cq:lastReplicationAction>
         <cq:lastReplicatedBy_publish>workflow-process-service</cq:lastReplicatedBy_publish>
         <cq:isDelivered>true</cq:isDelivered>
         <cq:lastReplicated>2024-02-09T22:16:07.461Z</cq:lastReplicated>
         <cq:lastReplicatedBy_scene7>workflow-process-service</cq:lastReplicatedBy_scene7>
         <cq:lastReplicated_scene7>2024-02-09T22:16:07.461Z</cq:lastReplicated_scene7>
         <tiff:ImageLength>36</tiff:ImageLength>
         <tiff:ImageWidth>36</tiff:ImageWidth>
      </rdf:Description>
   </rdf:RDF>
</x:xmpmeta>
                                                                                                    
                                                                                                    
                                                                                                    
                                                                                                    
                                                                                                    
                                                                                                    
                                                                                                    
                                                                                                    
                                                                                                    
                                                                                                    
                                 
<?xpacket end="w"?></metadata>
<g>
    <path d="M31,8.38H24.52l-.75-3.51a.62.62,0,0,0-.61-.49H12.84a.62.62,0,0,0-.61.49l-.75,3.51H5A.62.62,0,0,0,4.38,9V29a.62.62,0,0,0,.62.62H31a.62.62,0,0,0,.62-.62V9A.62.62,0,0,0,31,8.38ZM13.35,5.62h9.3l.59,2.76H12.76Zm17,4v4.76H5.62V9.62ZM5.62,28.38V15.62H30.38V28.38Z"/>
    <circle cx="27" cy="31" r="0.62"/>
    <path d="M24,12.62h3a.62.62,0,0,0,0-1.24H24A.62.62,0,0,0,24,12.62Z"/>
    <circle cx="15" cy="12" r="0.62"/>
    <circle cx="12" cy="12" r="0.62"/>
    <circle cx="9" cy="12" r="0.62"/>
    <circle cx="9" cy="31" r="0.62"/>
  </g>
</svg>
